X: 82
T: Alpin sottiisi
R: shottish
B: Pelimannis\"avelmi\"a III p.77 #87 (Fazer)
N: Kiikoisista. <<Alpi>> oli sokea soittaja Albin Koivuniemi Kiikoisista.
N: From Kiikoisi. "Alpi" was the blind musician Albin Koivuniemi from Kiikoisi.
Z: John Chambers <jc@trillian.mit.edu <mailto:jc@trillian.mit.edu>>
M: 2/4
L: 1/16
K: Dm
|: "Dm"fed^c d2A2 | "Gm"BcBA G2G2 | "A7"AAA^c e2e2 | "Dm"ABAG F2A2 |
| "Dm"fed^c d2A2 | "Gm"BcBA G2G2 | "A7"AAA^c egfe | "Dm"d2d2 d2z2 :|
|: "F"c2c2 c2c2 | cBAB c2c2 | "Bb"d2d2 defd | "F"cBAB c2c2 |
| "A7"eeef g2g2 | "Dm"abag f2f2 | "A7"efed ^c2c2 | "Dm"ABAG F2A2 |
| "Dm"fed^c d2A2 | "Gm"BcBA G2G2 | "A7"AAA^c egfe | "Dm"d2d2 d2z2 :|

